X:241
T:Lord Donnels Reel
O:No 241 William Clarke of Feltwell
M:4/4
L:1/8
N:Key signature of C given in m.s.
K:G
(B/c/)||Sd3e dBge|defg aAA2|d3e dBge|dedc BGG::dgbg agbg|dgbg age2|dgbg agbg|dedc BGG2|dgbg agbg|dgbg age2|c'bag gfed|efga bgg2S:|

